X: 13569
T: Fly, The
R: jig
M: 6/8
K: Dmajor
DFA dcd|BAF ~d2f|gfe age|dcA GFE|
DFA dcd|BAF ~d2f|gfe age|cBA d3:|
fgf eAA|def eaa|gfe fed|efd cBA|
fgf eAA|def eaa|gfe fed|cBA d3:|

